project/ovp/frontend/ovp/assets/images/icon/denied.svg

<svg width="150" height="150" viewBox="0 0 150 150" fill="none" xmlns="http://www.w3.org/2000/svg">
<rect width="150" height="150" rx="75" fill="#ADDFDF"/>
<path fill-rule="evenodd" clip-rule="evenodd" d="M30.625 135.47V45.625H119.375V135.47C106.949 144.604 91.6046 150 75 150C58.3954 150 43.0511 144.604 30.625 135.47ZM59.375 106.25C59.375 104.179 60.6121 102.5 62.1382 102.5H87.8618C89.3879 102.5 90.625 104.179 90.625 106.25C90.625 108.321 89.3879 110 87.8618 110H62.1382C60.6121 110 59.375 108.321 59.375 106.25ZM53.125 122.5C53.125 120.429 54.3621 118.75 55.8882 118.75H94.1118C95.6379 118.75 96.875 120.429 96.875 122.5C96.875 124.571 95.6379 126.25 94.1118 126.25H55.8882C54.3621 126.25 53.125 124.571 53.125 122.5Z" fill="white"/>
<path fill-rule="evenodd" clip-rule="evenodd" d="M75 56.6499C64.2856 56.6499 55.625 65.3105 55.625 76.0249C55.625 86.7393 64.2856 95.3999 75 95.3999C85.7144 95.3999 94.375 86.7393 94.375 76.0249C94.375 65.3105 85.7144 56.6499 75 56.6499ZM72.0408 75.7635L65.1253 68.848L68.2568 65.7165L75.1723 72.632L82.0877 65.7166L85.2191 68.8481L78.3038 75.7635L85.4799 82.9396L82.3484 86.0711L75.1723 78.8949L67.996 86.0712L64.8646 82.9397L72.0408 75.7635Z" fill="#09838F"/>
</svg>

<svg xmlns="http://www.w3.org/2000/svg" width="150" height="150" fill="none" viewBox="0 0 150 150">
  <rect width="150" height="150" fill="#D9EEF0" rx="75"/>
  <path fill="#fff" fill-rule="evenodd" d="M30.625 135.47V45.625h88.75v89.845C106.949 144.604 91.605 150 75 150s-31.949-5.396-44.375-14.53Zm28.75-29.22c0-2.071 1.237-3.75 2.763-3.75h25.724c1.526 0 2.763 1.679 2.763 3.75 0 2.071-1.237 3.75-2.763 3.75H62.138c-1.526 0-2.763-1.679-2.763-3.75Zm-6.25 16.25c0-2.071 1.237-3.75 2.763-3.75h38.224c1.526 0 2.763 1.679 2.763 3.75 0 2.071-1.237 3.75-2.763 3.75H55.888c-1.526 0-2.763-1.679-2.763-3.75Z" clip-rule="evenodd"/>
  <path fill="#6EBBC4" fill-rule="evenodd" d="M75 56.65c-10.714 0-19.375 8.66-19.375 19.375C55.625 86.739 64.285 95.4 75 95.4c10.714 0 19.375-8.66 19.375-19.375S85.715 56.65 75 56.65Zm-2.96 19.113-6.915-6.915 3.132-3.132 6.915 6.916 6.916-6.915 3.131 3.131-6.915 6.915 7.176 7.177-3.132 3.131-7.176-7.176-7.176 7.176-3.131-3.131 7.176-7.177Z" clip-rule="evenodd"/>
</svg>
